packages/ffe-icons/icons/filled/sm/nest_detect.svg

<svg xmlns="http://www.w3.org/2000/svg" height="20" viewBox="0 -960 960 960" width="20"><path d="M371.778-106.001q-50.932 0-86.354-35.58-35.423-35.58-35.423-86.419v-561.692q0-26.527 18.89-45.417t45.417-18.89h115.384q26.527 0 45.417 18.89t18.89 45.417V-228q0 50.839-35.645 86.419t-86.576 35.58Zm.222-51.998q29.846 0 49.924-20.577 20.077-20.578 20.077-49.424t-20.077-49.424Q401.846-298.001 372-298.001q-28.846 0-49.424 20.577-20.577 20.578-20.577 49.424t20.577 49.424q20.578 20.577 49.424 20.577Zm278.308-92.002q-26.527 0-45.417-18.89t-18.89-45.417v-331.384q0-26.527 18.89-45.417t45.417-18.89h43.384q26.527 0 45.417 18.89t18.89 45.417v331.384q0 26.527-18.89 45.417t-45.417 18.89h-43.384Z"/></svg>

<svg xmlns="http://www.w3.org/2000/svg" height="20" viewBox="0 -960 960 960" width="20"><path d="M371.78-106q-50.93 0-86.36-35.58Q250-177.16 250-228v-561.69q0-26.53 18.89-45.42T314.31-854h115.38q26.53 0 45.42 18.89T494-789.69V-228q0 50.84-35.65 86.42Q422.71-106 371.78-106Zm.22-52q29.85 0 49.92-20.58Q442-199.15 442-228t-20.08-49.42Q401.85-298 372-298q-28.85 0-49.42 20.58Q302-256.85 302-228t20.58 49.42Q343.15-158 372-158Zm278.31-92q-26.53 0-45.42-18.89T586-314.31v-331.38q0-26.53 18.89-45.42T650.31-710h43.38q26.53 0 45.42 18.89T758-645.69v331.38q0 26.53-18.89 45.42T693.69-250h-43.38Z"/></svg>
